src/cmd/sc_dbviewtables.svg

<svg viewBox="0 0 16 16" xmlns="http://www.w3.org/2000/svg">/&gt;<path d="m2 2v12h12v-12zm1 4h3v3h-3zm4 0h2v3h-2zm3 0h3v3h-3zm-7 4h3v3h-3zm4 0h2v3h-2zm3 0h3v3h-3z" fill="#232629"/></svg>

<?xml version="1.0" encoding="UTF-8" standalone="no"?>
<svg
   xmlns:dc="http://purl.org/dc/elements/1.1/"
   xmlns:cc="http://creativecommons.org/ns#"
   xmlns:rdf="http://www.w3.org/1999/02/22-rdf-syntax-ns#"
   xmlns:svg="http://www.w3.org/2000/svg"
   xmlns="http://www.w3.org/2000/svg"
   xmlns:sodipodi="http://sodipodi.sourceforge.net/DTD/sodipodi-0.dtd"
   xmlns:inkscape="http://www.inkscape.org/namespaces/inkscape"
   viewBox="0 0 16 16"
   version="1.1"
   id="svg4"
   sodipodi:docname="sc_dbviewtables.svg"
   inkscape:version="0.92.4 (5da689c313, 2019-01-14)"><metadata
   id="metadata10">
  <rdf:RDF>
    <cc:Work
       rdf:about="">
      <dc:format>image/svg+xml</dc:format>
      <dc:type
         rdf:resource="http://purl.org/dc/dcmitype/StillImage" />
    </cc:Work>
  </rdf:RDF>
</metadata>
<defs
   id="defs8" />
<sodipodi:namedview
   pagecolor="#ffffff"
   bordercolor="#666666"
   borderopacity="1"
   objecttolerance="10"
   gridtolerance="10"
   guidetolerance="10"
   inkscape:pageopacity="0"
   inkscape:pageshadow="2"
   inkscape:window-width="1920"
   inkscape:window-height="1011"
   id="namedview6"
   showgrid="true"
   inkscape:zoom="41.7193"
   inkscape:cx="4.385921"
   inkscape:cy="5.1478564"
   inkscape:window-x="1920"
   inkscape:window-y="32"
   inkscape:window-maximized="1"
   inkscape:current-layer="svg4">
  <inkscape:grid
     type="xygrid"
     id="grid817" />
</sodipodi:namedview>
/&gt;<path
   d="M 5,2 C 3,2 2,2 2,4 v 8 c 0,2 1,2 3,2 h 6 c 2,0 3,0 3,-2 V 4 C 14,2 13,2 11,2 Z M 3,6 H 6 V 9 H 3 Z M 7,6 H 9 V 9 H 7 Z m 3,0 h 3 v 3 h -3 z m -7,4 h 3 v 3 H 5 C 4,13 3,13 3,12 Z m 4,0 h 2 v 3 H 7 Z m 3,0 h 3 v 2 c 0,1 -1,1 -2,1 h -1 z"
   id="path2"
   inkscape:connector-curvature="0"
   style="fill:#232629"
   sodipodi:nodetypes="ccccccccccccccccccccccccccccccccccccccccc" />
</svg>
